flaticon/interaction/smartphone-10.svg

<svg xmlns="http://www.w3.org/2000/svg" width="32" height="32" viewBox="0 0 24 24">
    <path d="M21.8125 16.257812C20.410156 14.109375 18.53125 12.898438 16.511719 12.820312 16.402344 12.808594 16.296875 12.800781 16.183594 12.800781 15.988281 12.800781 15.800781 12.820312 15.613281 12.859375 13.777344 13.097656 12.082031 14.28125 10.789062 16.257812L10.601562 16.542969 10.746094 16.761719C12.199219 18.980469 14.15625 20.203125 16.257812 20.203125 18.359375 20.203125 20.316406 18.980469 21.769531 16.761719L21.957031 16.476562zM15.765625 13.648438C15.941406 13.625 16.121094 13.613281 16.300781 13.613281 16.308594 13.613281 16.316406 13.613281 16.324219 13.613281 17.339844 13.6875 18.148438 14.527344 18.148438 15.5625 18.148438 16.644531 17.269531 17.527344 16.183594 17.527344 15.101562 17.527344 14.222656 16.644531 14.222656 15.5625 14.222656 14.625 14.882812 13.839844 15.765625 13.648438zM16.257812 19.40625C14.503906 19.40625 12.84375 18.390625 11.5625 16.539062 12.183594 15.625 12.902344 14.914062 13.671875 14.417969 13.511719 14.769531 13.421875 15.15625 13.421875 15.5625 13.421875 17.085938 14.660156 18.328125 16.183594 18.328125 17.707031 18.328125 18.949219 17.085938 18.949219 15.5625 18.949219 15.078125 18.820312 14.621094 18.597656 14.222656 19.480469 14.707031 20.296875 15.464844 21 16.476562 19.710938 18.367188 18.03125 19.40625 16.257812 19.40625zM7.242188 21.199219C7.242188 22.082031 7.960938 22.800781 8.84375 22.800781 9.722656 22.800781 10.441406 22.082031 10.441406 21.199219 10.441406 20.316406 9.722656 19.601562 8.84375 19.601562 7.960938 19.601562 7.242188 20.316406 7.242188 21.199219zM9.640625 21.199219C9.640625 21.640625 9.28125 22 8.84375 22 8.402344 22 8.042969 21.640625 8.042969 21.199219 8.042969 20.757812 8.402344 20.398438 8.84375 20.398438 9.28125 20.398438 9.640625 20.757812 9.640625 21.199219zM9.640625 21.199219"/>
    <path d="M 13.878906 23.199219 L 3.804688 23.199219 C 3.273438 23.199219 2.84375 22.769531 2.84375 22.238281 L 2.84375 19.199219 L 11.242188 19.199219 C 11.460938 19.199219 11.640625 19.019531 11.640625 18.800781 C 11.640625 18.578125 11.460938 18.398438 11.242188 18.398438 L 2.84375 18.398438 L 2.84375 3.199219 L 14.84375 3.199219 L 14.84375 12 C 14.84375 12.222656 15.019531 12.398438 15.242188 12.398438 C 15.460938 12.398438 15.640625 12.222656 15.640625 12 L 15.640625 1.761719 C 15.640625 0.789062 14.851562 0 13.878906 0 L 3.804688 0 C 2.832031 0 2.042969 0.789062 2.042969 1.761719 L 2.042969 22.238281 C 2.042969 23.210938 2.832031 24 3.804688 24 L 13.878906 24 C 14.101562 24 14.28125 23.820312 14.28125 23.601562 C 14.28125 23.378906 14.101562 23.199219 13.878906 23.199219 Z M 2.84375 1.761719 C 2.84375 1.230469 3.273438 0.800781 3.804688 0.800781 L 13.878906 0.800781 C 14.410156 0.800781 14.84375 1.230469 14.84375 1.761719 L 14.84375 2.398438 L 2.84375 2.398438 Z M 2.84375 1.761719"/>
    <path d="M8.84375 1.199219L7.242188 1.199219C7.019531 1.199219 6.84375 1.378906 6.84375 1.601562 6.84375 1.820312 7.019531 2 7.242188 2L8.84375 2C9.0625 2 9.242188 1.820312 9.242188 1.601562 9.242188 1.378906 9.0625 1.199219 8.84375 1.199219zM10.441406 1.199219L10.042969 1.199219C9.820312 1.199219 9.640625 1.378906 9.640625 1.601562 9.640625 1.820312 9.820312 2 10.042969 2L10.441406 2C10.664062 2 10.84375 1.820312 10.84375 1.601562 10.84375 1.378906 10.664062 1.199219 10.441406 1.199219zM10.441406 1.199219"/>
</svg>

<svg xmlns="http://www.w3.org/2000/svg" width="32" height="32" viewBox="0 0 24 24">
    <path d="M21.813 16.258c-1.403-2.149-3.282-3.36-5.301-3.438a2.77 2.77 0 0 0-.898.04c-1.837.238-3.532 1.421-4.825 3.398l-.187.285.144.219c1.453 2.218 3.41 3.441 5.512 3.441 2.101 0 4.058-1.223 5.512-3.441l.187-.285zm-6.047-2.61a4.06 4.06 0 0 1 .535-.035h.023a1.961 1.961 0 0 1 1.824 1.95 1.966 1.966 0 0 1-1.964 1.964 1.966 1.966 0 0 1-1.961-1.965c0-.937.66-1.722 1.543-1.914zm.492 5.758c-1.754 0-3.414-1.015-4.695-2.867.62-.914 1.34-1.625 2.109-2.121-.16.352-.25.738-.25 1.145a2.767 2.767 0 0 0 2.762 2.765 2.77 2.77 0 0 0 2.765-2.765 2.74 2.74 0 0 0-.351-1.34c.882.484 1.699 1.242 2.402 2.254-1.29 1.89-2.969 2.93-4.742 2.93zm0 0M7.242 21.2c0 .882.719 1.6 1.602 1.6a1.6 1.6 0 1 0-1.602-1.602zm2.399 0c0 .44-.36.8-.797.8a.802.802 0 0 1 0-1.602c.437 0 .797.36.797.801zm0 0"/>
    <path d="M13.879 23.2H3.805a.96.96 0 0 1-.961-.962V19.2h8.398a.4.4 0 0 0 0-.8H2.844v-15.2h12V12c0 .223.176.398.398.398a.398.398 0 0 0 .399-.398V1.762C15.64.789 14.85 0 13.879 0H3.805c-.973 0-1.762.79-1.762 1.762v20.476c0 .973.789 1.762 1.762 1.762h10.074a.401.401 0 1 0 0-.8zM2.844 1.761c0-.532.43-.961.96-.961H13.88c.531 0 .965.43.965.96v.637h-12zm0 0"/>
    <path d="M8.844 1.2H7.242a.398.398 0 0 0-.398.402c0 .218.176.398.398.398h1.602a.4.4 0 0 0 0-.8zm0 0M10.441 1.2h-.398a.401.401 0 0 0 0 .8h.398a.401.401 0 1 0 0-.8zm0 0"/>
</svg>
